public/images/sponsors/Medipass.svg

<svg fill="none" height="86" viewBox="0 0 172 86" width="172" xmlns="http://www.w3.org/2000/svg" xmlns:xlink="http://www.w3.org/1999/xlink"><clipPath id="a"><path d="m8 27h157v33h-157z"/></clipPath><g clip-path="url(#a)"><g fill="#231f20"><path d="m58.8167 44.3913 5.9884-11.8913h4.148v22h-4.1793v-13.7141l-4.6784 9.6145h-2.651l-4.616-9.5194v13.619h-4.1482v-22h4.0858z"/><path d="m75.5084 44.5494h4.8967c-.0935-2.0558-.9044-2.9095-2.4015-2.9095-1.5907 0-2.3392 1.1068-2.4952 2.9095zm8.6707 7.369c-1.0918 1.929-2.9007 2.688-5.7076 2.688-4.6784 0-6.9241-3.0676-6.9241-7.1475v-2.1505c0-4.7756 2.3704-7.0842 6.4251-7.0842 4.3975 0 6.4247 2.5932 6.4247 7.4004v1.8026h-8.8888c.0312 2.1823.7173 3.7636 2.9317 3.7636 1.6531 0 2.1833-.506 2.7759-1.3599z"/><path d="m95.5962 47.2059v-1.9924c0-2.3086-.9045-3.5736-2.7757-3.5736-1.9651 0-2.7759 1.3914-2.7759 3.9215v1.6445c0 2.2771.6237 3.9849 2.7759 3.9849 2.2455 0 2.7757-1.7078 2.7757-3.9849zm0-14.706h3.9611v22h-3.9611v-1.0952c-.8109.759-1.8713 1.2017-3.3373 1.2017-4.0858 0-6.1754-2.9411-6.1754-7.1475v-2.1505c0-4.6175 2.464-7.0842 6.1754-7.0842 1.3411 0 2.4639.3479 3.3373 1.1069z"/><path d="m102.361 38.5089h3.992v15.9911h-3.992zm-.156-6.0089h4.304v3.9215h-4.304z"/><path d="m118.62 47.206v-1.6445c0-2.5301-.78-3.9215-2.745-3.9215-1.903 0-2.776 1.265-2.776 3.5736v1.9924c0 2.2771.53 3.9849 2.776 3.9849 2.152 0 2.745-1.7078 2.745-3.9849zm3.992.253c0 4.1114-2.059 7.1475-6.082 7.1475-1.622 0-2.714-.316-3.431-.9169v6.3104h-3.992v-21.4911h3.992v1.0436c.749-.8538 1.871-1.3282 3.462-1.3282 3.618 0 6.051 2.5616 6.051 7.0842z"/><path d="m132.912 47.8067h-2.62c-1.621 0-2.339.5377-2.339 1.7714 0 1.2017.905 1.7708 2.277 1.7708 1.809 0 2.682-.7904 2.682-2.9411zm-3.087-2.9727h3.087v-.9172c0-1.7709-.53-2.3404-2.775-2.3404-1.529 0-2.277.2216-2.932 1.2652l-2.807-1.9925c1.154-1.929 2.9-2.6249 6.113-2.6249 4.023 0 6.3 1.2017 6.3 5.7243v10.5514h-3.899v-1.5696c-.623 1.0753-1.559 1.6761-3.368 1.6761-3.244 0-5.489-1.7393-5.489-4.9651 0-3.3525 2.495-4.8073 5.77-4.8073z"/><path d="m147.867 42.9682c-.686-.8223-1.372-1.2651-3.056-1.2651-1.03 0-1.965.3163-1.965 1.2333 0 .9489.842 1.2967 2.495 1.5497 3.836.6009 5.77 2.0874 5.77 5.2183 0 3.0362-2.09 4.902-6.113 4.902-3.182 0-5.115-.7906-6.456-2.6248l3.056-2.214c.624.8541 1.403 1.3599 3.337 1.3599 1.373 0 2.215-.4742 2.215-1.2966 0-.9804-.687-1.2966-2.651-1.6128-3.244-.5379-5.614-1.9293-5.614-5.1236 0-3.0044 2.12-4.8703 6.019-4.8703 2.558 0 4.678.6009 5.895 2.6249z"/><path d="m161.714 42.9682c-.686-.8223-1.372-1.2651-3.056-1.2651-1.03 0-1.965.3163-1.965 1.2333 0 .9489.842 1.2967 2.495 1.5497 3.836.6009 5.77 2.0874 5.77 5.2183 0 3.0362-2.09 4.902-6.113 4.902-3.181 0-5.115-.7906-6.456-2.6248l3.056-2.214c.624.8541 1.404 1.3599 3.337 1.3599 1.373 0 2.215-.4742 2.215-1.2966 0-.9804-.686-1.2966-2.651-1.6128-3.244-.5379-5.614-1.9293-5.614-5.1236 0-3.0044 2.121-4.8703 6.019-4.8703 2.558 0 4.679.6009 5.895 2.6249z"/></g><path d="m18.8481 27c-5.9912 0-10.8481 4.9249-10.8481 11v22h21.6961c5.9912 0 10.848-4.9249 10.848-11v-22z" fill="#1080a8"/><path d="m35.1203 46.25h-8.136v8.25h-5.4239v-8.25h-8.1361v-5.5h8.1361v-8.25h5.4239v8.25h8.136z" fill="#fff"/></g></svg>

<svg width="172" height="86" viewBox="0 0 172 86" fill="none" xmlns="http://www.w3.org/2000/svg">
<g clip-path="url(#clip0)">
<path d="M58.8167 44.3913L64.8051 32.5H68.9531V54.5H64.7738V40.7859L60.0954 50.4004H57.4444L52.8284 40.881V54.5H48.6802V32.5H52.766L58.8167 44.3913Z" fill="#231F20"/>
<path d="M75.5084 44.5494H80.4051C80.3116 42.4936 79.5007 41.6399 78.0036 41.6399C76.4129 41.6399 75.6644 42.7467 75.5084 44.5494ZM84.1791 51.9184C83.0873 53.8474 81.2784 54.6064 78.4715 54.6064C73.7931 54.6064 71.5474 51.5388 71.5474 47.4589V45.3084C71.5474 40.5328 73.9178 38.2242 77.9725 38.2242C82.37 38.2242 84.3972 40.8174 84.3972 45.6246V47.4272H75.5084C75.5396 49.6095 76.2257 51.1908 78.4401 51.1908C80.0932 51.1908 80.6234 50.6848 81.216 49.8309L84.1791 51.9184Z" fill="#231F20"/>
<path d="M95.5962 47.2059V45.2135C95.5962 42.9049 94.6917 41.6399 92.8205 41.6399C90.8554 41.6399 90.0446 43.0313 90.0446 45.5614V47.2059C90.0446 49.483 90.6683 51.1908 92.8205 51.1908C95.066 51.1908 95.5962 49.483 95.5962 47.2059ZM95.5962 32.4999H99.5573V54.4999H95.5962V53.4047C94.7853 54.1637 93.7249 54.6064 92.2589 54.6064C88.1731 54.6064 86.0835 51.6653 86.0835 47.4589V45.3084C86.0835 40.6909 88.5475 38.2242 92.2589 38.2242C93.6 38.2242 94.7228 38.5721 95.5962 39.3311V32.4999Z" fill="#231F20"/>
<path d="M102.361 38.5089H106.353V54.5H102.361V38.5089ZM102.205 32.5H106.509V36.4215H102.205V32.5Z" fill="#231F20"/>
<path d="M118.62 47.206V45.5615C118.62 43.0314 117.84 41.64 115.875 41.64C113.972 41.64 113.099 42.905 113.099 45.2136V47.206C113.099 49.4831 113.629 51.1909 115.875 51.1909C118.027 51.1909 118.62 49.4831 118.62 47.206ZM122.612 47.459C122.612 51.5704 120.553 54.6065 116.53 54.6065C114.908 54.6065 113.816 54.2905 113.099 53.6896V60H109.107V38.5089H113.099V39.5525C113.848 38.6987 114.97 38.2243 116.561 38.2243C120.179 38.2243 122.612 40.7859 122.612 45.3085V47.459Z" fill="#231F20"/>
<path d="M132.912 47.8067H130.292C128.671 47.8067 127.953 48.3444 127.953 49.5781C127.953 50.7798 128.858 51.3489 130.23 51.3489C132.039 51.3489 132.912 50.5585 132.912 48.4078V47.8067ZM129.825 44.834H132.912V43.9168C132.912 42.1459 132.382 41.5764 130.137 41.5764C128.608 41.5764 127.86 41.798 127.205 42.8416L124.398 40.8491C125.552 38.9201 127.298 38.2242 130.511 38.2242C134.534 38.2242 136.811 39.4259 136.811 43.9485V54.4999H132.912V52.9303C132.289 54.0056 131.353 54.6064 129.544 54.6064C126.3 54.6064 124.055 52.8671 124.055 49.6413C124.055 46.2888 126.55 44.834 129.825 44.834Z" fill="#231F20"/>
<path d="M147.867 42.9682C147.181 42.1459 146.495 41.7031 144.811 41.7031C143.781 41.7031 142.846 42.0194 142.846 42.9364C142.846 43.8853 143.688 44.2331 145.341 44.4861C149.177 45.087 151.111 46.5735 151.111 49.7044C151.111 52.7406 149.021 54.6064 144.998 54.6064C141.816 54.6064 139.883 53.8158 138.542 51.9816L141.598 49.7676C142.222 50.6217 143.001 51.1275 144.935 51.1275C146.308 51.1275 147.15 50.6533 147.15 49.8309C147.15 48.8505 146.463 48.5343 144.499 48.2181C141.255 47.6802 138.885 46.2888 138.885 43.0945C138.885 40.0901 141.005 38.2242 144.904 38.2242C147.462 38.2242 149.582 38.8251 150.799 40.8491L147.867 42.9682Z" fill="#231F20"/>
<path d="M161.714 42.9682C161.028 42.1459 160.342 41.7031 158.658 41.7031C157.628 41.7031 156.693 42.0194 156.693 42.9364C156.693 43.8853 157.535 44.2331 159.188 44.4861C163.024 45.087 164.958 46.5735 164.958 49.7044C164.958 52.7406 162.868 54.6064 158.845 54.6064C155.664 54.6064 153.73 53.8158 152.389 51.9816L155.445 49.7676C156.069 50.6217 156.849 51.1275 158.782 51.1275C160.155 51.1275 160.997 50.6533 160.997 49.8309C160.997 48.8505 160.311 48.5343 158.346 48.2181C155.102 47.6802 152.732 46.2888 152.732 43.0945C152.732 40.0901 154.853 38.2242 158.751 38.2242C161.309 38.2242 163.43 38.8251 164.646 40.8491L161.714 42.9682Z" fill="#231F20"/>
<path d="M18.8481 27C12.8569 27 8 31.9249 8 38V60H29.6961C35.6873 60 40.5441 55.0751 40.5441 49V27H18.8481Z" fill="#1080A8"/>
<path d="M35.1203 46.25H26.9843V54.5H21.5604V46.25H13.4243V40.75H21.5604V32.5H26.9843V40.75H35.1203V46.25Z" fill="white"/>
</g>
<defs>
<clipPath id="clip0">
<rect width="157" height="33" fill="white" transform="translate(8 27)"/>
</clipPath>
</defs>
</svg>
